assets/images/vector/icons/crosshair_slash_icon.svg

<svg fill="none" height="60" viewBox="0 0 60 60" width="60" xmlns="http://www.w3.org/2000/svg"><g stroke="#111" stroke-linecap="round" stroke-linejoin="round" stroke-width="10"><path d="m50.0414 21.7466c1.05 2.5433 1.6266 5.3333 1.6266 8.2533 0 11.9667-9.7 21.6667-21.6666 21.6667-2.9234 0-5.71-.58-8.2534-1.6267"/><path d="m14.6807 45.3199c-3.92-3.92-6.34672-9.3366-6.34672-15.32 0-11.9666 9.70002-21.66665 21.66672-21.66665 5.9833 0 11.3999 2.42665 15.3199 6.34665"/><path d="m24.6967 35.3033c-1.3567-1.3566-2.1967-3.2333-2.1967-5.3033 0-4.1433 3.3567-7.5 7.5-7.5 2.07 0 3.9467.84 5.3033 2.1967"/><path d="m30 3.33325v5"/><path d="m56.668 30h-5"/><path d="m30 56.6665v-5"/><path d="m3.33398 30h5"/><path d="m6.66797 53.3332 46.66663-46.6667"/></g></svg>

<svg width="60" height="60" viewBox="0 0 60 60" fill="none" xmlns="http://www.w3.org/2000/svg">
<path d="M50.0414 21.7466C51.0914 24.2899 51.668 27.0799 51.668 29.9999C51.668 41.9666 41.968 51.6666 30.0014 51.6666C27.078 51.6666 24.2914 51.0866 21.748 50.0399" stroke="#111111" stroke-width="10" stroke-linecap="round" stroke-linejoin="round"/>
<path d="M14.6807 45.3199C10.7607 41.3999 8.33398 35.9833 8.33398 29.9999C8.33398 18.0333 18.034 8.33325 30.0007 8.33325C35.984 8.33325 41.4006 10.7599 45.3206 14.6799" stroke="#111111" stroke-width="10" stroke-linecap="round" stroke-linejoin="round"/>
<path d="M24.6967 35.3033C23.34 33.9467 22.5 32.07 22.5 30C22.5 25.8567 25.8567 22.5 30 22.5C32.07 22.5 33.9467 23.34 35.3033 24.6967" stroke="#111111" stroke-width="10" stroke-linecap="round" stroke-linejoin="round"/>
<path d="M30 3.33325V8.33325" stroke="#111111" stroke-width="10" stroke-linecap="round" stroke-linejoin="round"/>
<path d="M56.668 30H51.668" stroke="#111111" stroke-width="10" stroke-linecap="round" stroke-linejoin="round"/>
<path d="M30 56.6665V51.6665" stroke="#111111" stroke-width="10" stroke-linecap="round" stroke-linejoin="round"/>
<path d="M3.33398 30H8.33398" stroke="#111111" stroke-width="10" stroke-linecap="round" stroke-linejoin="round"/>
<path d="M6.66797 53.3332L53.3346 6.6665" stroke="#111111" stroke-width="10" stroke-linecap="round" stroke-linejoin="round"/>
</svg>
